icons/heart.svg

<svg width="48" height="48" viewBox="0 0 48 48" fill="none" xmlns="http://www.w3.org/2000/svg">
<path fill-rule="evenodd" clip-rule="evenodd" d="M10.3446 11.9881C8.88463 13.846 8 16.3844 8 19.0345C8 24.9753 11.9647 29.9621 16.1509 33.5511C18.2235 35.3281 20.301 36.7192 21.8625 37.6666C22.6421 38.1396 23.2904 38.5003 23.7413 38.7417C23.8312 38.7898 23.9132 38.8331 23.9868 38.8716C24.0623 38.83 24.1466 38.783 24.2393 38.7307C24.6913 38.4758 25.3407 38.0963 26.1217 37.6023C27.6856 36.613 29.7664 35.1713 31.8424 33.3592C36.0437 29.6922 40 24.7063 40 19.0345C40 16.3848 39.1155 13.8464 37.6556 11.9884C36.2005 10.1365 34.2134 9 31.9688 9C28.866 9 26.4594 11.0208 24.8976 14.2018L24 16.0301L23.1024 14.2018C21.5405 11.0206 19.1339 9 16.0312 9C13.7868 9 11.7997 10.1363 10.3446 11.9881ZM24 40C23.5662 40.901 23.5655 40.9007 23.5655 40.9007L23.561 40.8985L23.5496 40.8929L23.5087 40.8729C23.4735 40.8555 23.4227 40.8302 23.3573 40.7971C23.2264 40.7308 23.0371 40.6332 22.7977 40.5051C22.319 40.2489 21.6391 39.8704 20.825 39.3765C19.199 38.3899 17.0265 36.9362 14.8491 35.0695C10.5353 31.3711 6 25.8752 6 19.0345C6 15.9592 7.02123 12.9804 8.77202 10.7524C10.5276 8.51823 13.0561 7 16.0312 7C19.5348 7 22.1991 8.96337 24 11.7338C25.8008 8.9635 28.4651 7 31.9688 7C34.9442 7 37.4727 8.5185 39.2282 10.7527C40.9789 12.9809 42 15.9597 42 19.0345C42 25.617 37.4563 31.1139 33.1576 34.866C30.9836 36.7635 28.8144 38.2655 27.1908 39.2925C26.378 39.8067 25.6993 40.2035 25.2217 40.4728C24.9828 40.6075 24.794 40.7105 24.6636 40.7804C24.5985 40.8154 24.5479 40.8421 24.5129 40.8604L24.4724 40.8815L24.4611 40.8873L24.4578 40.8891L24.4567 40.8896C24.4567 40.8896 24.456 40.89 24 40ZM24 40L24.4567 40.8896L24.0139 41.1165L23.5655 40.9007L24 40Z" fill="black"/>
</svg>

<svg
  xmlns="http://www.w3.org/2000/svg"
  width="24"
  height="24"
  viewBox="0 0 24 24"
  fill="none"
  stroke="currentColor"
  stroke-width="2"
  stroke-linecap="round"
  stroke-linejoin="round"
>
  <path
    fill-rule="evenodd"
    d="M10.345 11.988C8.885 13.846 8 16.384 8 19.035c0 5.94 3.965 10.927 8.15 14.516a43.8 43.8 0 0 0 7.837 5.32l.252-.14a47.168 47.168 0 0 0 7.603-5.371C36.044 29.691 40 24.705 40 19.034c0-2.65-.885-5.189-2.344-7.047C36.2 10.137 34.213 9 31.969 9c-3.103 0-5.51 2.02-7.071 5.202L24 16.03l-.898-1.828C21.541 11.02 19.134 9 16.032 9c-2.245 0-4.232 1.136-5.687 2.988M24 40l-.434.9-.005-.002-.011-.005-.041-.02-.152-.076c-.13-.066-.32-.164-.56-.292a45.822 45.822 0 0 1-7.949-5.436c-4.313-3.698-8.848-9.194-8.848-16.034 0-3.076 1.021-6.055 2.772-8.283C10.528 8.518 13.056 7 16.032 7c3.503 0 6.167 1.963 7.968 4.734C25.8 8.964 28.465 7 31.969 7c2.975 0 5.504 1.518 7.26 3.753C40.978 12.98 42 15.96 42 19.035c0 6.582-4.544 12.079-8.842 15.831a49 49 0 0 1-8.494 5.914l-.151.08-.04.022-.012.005-.003.002h-.001S24.456 40.89 24 40m0 0 .457.89-.443.227-.448-.216z"
    clip-rule="evenodd"
  />
</svg>
